src/images/v2/bird-mobile.svg

<svg fill="none" height="33" viewBox="0 0 27 33" width="27" xmlns="http://www.w3.org/2000/svg" xmlns:xlink="http://www.w3.org/1999/xlink"><clipPath id="a"><path d="m6.52319 4.63867h4.46974v4.46974h-4.46974z"/></clipPath><path d="m12.3919 33.0003c-6.84395 0-12.39206338-1.4286-12.39206338-3.1908 0-1.7623 5.54811338-3.1908 12.39206338-3.1908 6.8439 0 12.392 1.4285 12.392 3.1908 0 1.7622-5.5481 3.1908-12.392 3.1908z" fill="#f0f4f9"/><g fill="#000"><path d="m9.79597 21.2183c-.09758.2898-.17934.5848-.2449.8836-.06857.2945-.12441.5891-.17339.8836-.096.5891-.16523 1.1759-.20768 1.7603-.08374 1.1726-.07981 2.3498.01176 3.5217l.32327-.5429c-.23609.1512-.46727.3122-.69748.4723l-.34189.2493-.33698.2573c-.22237.1777-.44278.3564-.65732.5478-.21861.1917-.42722.3945-.62499.6077.28659-.048.57043-.1112.8503-.1895.27723-.0726.5476-.159.81797-.2474l.39969-.1404.39184-.1492c.26057-.1041.52213-.2081.77683-.323l.2939-.1306.0323-.4114c.0916-1.1719.0955-2.3491.0118-3.5217-.0431-.589-.1107-1.1781-.2077-1.7603-.049-.2945-.1048-.5891-.1724-.8836-.06606-.2987-.14781-.5936-.24493-.8836z"/><path d="m14.3023 22.2002c-.0978.2899-.1799.5848-.2459.8836-.0686.2945-.1244.5891-.1734.8836-.096.5891-.1649 1.1805-.2067 1.7741-.0418.5937-.0614 1.1847-.0588 1.7731 0 .5891.0235 1.1831.0715 1.7741l.3223-.5409c-.2361.1512-.4663.3122-.6965.4722l-.3419.2494-.3379.2572c-.2214.1767-.4428.3554-.6564.5479-.2189.1909-.4278.3931-.6259.6057.2862-.0483.5697-.1116.8493-.1895.2782-.0736.5486-.16.818-.2484l.3997-.1404.3918-.1482c.2606-.1051.5221-.2091.7778-.324l.2939-.1286.0333-.4124c.048-.589.0695-1.1781.0725-1.7741.0029-.5959-.0177-1.1781-.0598-1.7731-.0421-.5949-.1107-1.1781-.2067-1.7741-.049-.2945-.1048-.5891-.1734-.8836-.0663-.2988-.1487-.5937-.2468-.8836z"/><path d="m7.73975 1.34483-5.18214 5.1937-1.21178-5.590341c-.02739-.129605-.02163-.264046.01676-.390818.03838-.126772.10813-.241755.20277-.334249.09463-.092494.21107-.1594954.33849-.1947692.12741-.0352738.26166-.0376743.39024-.0069782z"/></g><path d="m13.8321 24.7529h5.529c.2434 0 .4769-.0969.649-.2694s.2688-.4065.2688-.6505v-13.374c0-2.56183-1.0151-5.01877-2.8222-6.8306-1.807-1.81183-4.2581-2.830236-6.8142-2.831277h-.0205c-2.21829 0-4.34568.883157-5.91421 2.455197-1.56854 1.57204-2.44973 3.70417-2.44973 5.92737v3.97041c0 3.0778 1.21992 6.0295 3.3914 8.2058s5.11664 3.399 8.18754 3.399z" fill="#fff"/><path clip-rule="evenodd" d="m13.6279 24.2877c-2.8716-.054-5.61437-1.2208-7.6494-3.2603-2.08434-2.089-3.2555-4.9225-3.2555-7.8773v-3.97034c0-2.10013.83243-4.11404 2.31383-5.59875 1.48136-1.48467 3.4903-2.31855 5.58477-2.31855h.0204c2.4324.00104 4.7651.97014 6.485 2.69457 1.72 1.7245 2.6864 4.06324 2.6864 6.50197v13.374c0 .121-.048.2367-.133.3219-.0849.0852-.1999.1328-.3197.1328zm2.6145.9306h3.1183c.3672 0 .7191-.1462.9784-.4061s.4048-.6121.4048-.9792v-13.374c0-2.68479-1.0639-5.25992-2.9581-7.15908-1.8941-1.8992-4.4636-2.966893-7.1434-2.967984h-.0208c-2.34193 0-4.58778.932434-6.24348 2.591834-1.65568 1.65937-2.58564 3.90974-2.58564 6.25599v3.97034c0 3.2009 1.26869 6.2708 3.52731 8.5345 2.25865 2.2637 5.32231 3.5356 8.51691 3.5356h2.4106z" fill="#000" fill-rule="evenodd"/><path d="m12.343 12.0878c-1.082 0-1.9592-.8791-1.9592-1.9636 0-1.08443.8772-1.96356 1.9592-1.96356 1.0821 0 1.9592.87913 1.9592 1.96356 0 1.0845-.8771 1.9636-1.9592 1.9636z" fill="#ffaeae"/><path d="m9.11025 10.615c-2.05589 0-3.72251-1.67039-3.72251-3.73086 0-2.06048 1.66662-3.73082 3.72251-3.73082 2.05585 0 3.72255 1.67034 3.72255 3.73082 0 2.06047-1.6667 3.73086-3.72255 3.73086z" fill="#fff"/><path clip-rule="evenodd" d="m9.11032 3.61851c1.79798 0 3.25728 1.46106 3.25728 3.26556 0 1.80449-1.4593 3.26553-3.25728 3.26553-1.79795 0-3.25725-1.46104-3.25725-3.26553 0-1.8045 1.4593-3.26556 3.25725-3.26556zm4.18778 3.26556c0-2.31646-1.874-4.19608-4.18778-4.19608-2.31382 0-4.18777 1.87962-4.18777 4.19608 0 2.31645 1.87395 4.19603 4.18777 4.19603 2.31378 0 4.18778-1.87958 4.18778-4.19603z" fill="#000" fill-rule="evenodd"/><path d="m20.0603 24.8172 5.6553-3.2586-2.1561 3.1692 2.5333 2.7343z" fill="#000"/><g clip-path="url(#a)"><circle cx="7.6179" cy="5.74534" fill="#191919" r="1.07005"/></g></svg>

<svg width="27" height="33" viewBox="0 0 27 33" fill="none" xmlns="http://www.w3.org/2000/svg">
<path d="M12.3919 33.0003C5.54795 33.0003 -0.00016338 31.5717 -0.00016338 29.8095C-0.00016338 28.0472 5.54795 26.6187 12.3919 26.6187C19.2358 26.6187 24.7839 28.0472 24.7839 29.8095C24.7839 31.5717 19.2358 33.0003 12.3919 33.0003Z" fill="#F0F4F9"/>
<path d="M9.79597 21.2183C9.69839 21.5081 9.61663 21.8031 9.55107 22.1019C9.4825 22.3964 9.42666 22.691 9.37768 22.9855C9.28168 23.5746 9.21245 24.1614 9.17 24.7458C9.08626 25.9184 9.09019 27.0956 9.18176 28.2675L9.50503 27.7246C9.26894 27.8758 9.03776 28.0368 8.80755 28.1969L8.46566 28.4462L8.12868 28.7035C7.90631 28.8812 7.6859 29.0599 7.47136 29.2513C7.25275 29.443 7.04414 29.6458 6.84637 29.859C7.13296 29.811 7.4168 29.7478 7.69667 29.6695C7.9739 29.5969 8.24427 29.5105 8.51464 29.4221L8.91433 29.2817L9.30617 29.1325C9.56674 29.0284 9.8283 28.9244 10.083 28.8095L10.3769 28.6789L10.4092 28.2675C10.5008 27.0956 10.5047 25.9184 10.421 24.7458C10.3779 24.1568 10.3103 23.5677 10.2133 22.9855C10.1643 22.691 10.1085 22.3964 10.0409 22.1019C9.97484 21.8032 9.89309 21.5083 9.79597 21.2183V21.2183Z" fill="black"/>
<path d="M14.3023 22.2002C14.2045 22.4901 14.1224 22.785 14.0564 23.0838C13.9878 23.3783 13.932 23.6729 13.883 23.9674C13.787 24.5565 13.7181 25.1479 13.6763 25.7415C13.6345 26.3352 13.6149 26.9262 13.6175 27.5146C13.6175 28.1037 13.641 28.6977 13.689 29.2887L14.0113 28.7478C13.7752 28.899 13.545 29.06 13.3148 29.22L12.9729 29.4694L12.635 29.7266C12.4136 29.9033 12.1922 30.082 11.9786 30.2745C11.7597 30.4654 11.5508 30.6676 11.3527 30.8802C11.6389 30.8319 11.9224 30.7686 12.202 30.6907C12.4802 30.6171 12.7506 30.5307 13.02 30.4423L13.4197 30.3019L13.8115 30.1537C14.0721 30.0486 14.3336 29.9446 14.5893 29.8297L14.8832 29.7011L14.9165 29.2887C14.9645 28.6997 14.986 28.1106 14.989 27.5146C14.9919 26.9187 14.9713 26.3365 14.9292 25.7415C14.8871 25.1466 14.8185 24.5634 14.7225 23.9674C14.6735 23.6729 14.6177 23.3783 14.5491 23.0838C14.4828 22.785 14.4004 22.4901 14.3023 22.2002Z" fill="black"/>
<path d="M7.73975 1.34483L2.55761 6.53853L1.34583 0.948189C1.31844 0.818584 1.3242 0.684143 1.36259 0.557371C1.40097 0.430599 1.47072 0.315616 1.56536 0.223122C1.65999 0.130628 1.77643 0.0636266 1.90385 0.0283528C2.03126 -0.006921 2.16551 -0.0093215 2.29409 0.0213746L7.73975 1.34483Z" fill="black"/>
<path d="M13.8321 24.7529L19.3611 24.7529C19.6045 24.7529 19.838 24.656 20.0101 24.4835C20.1822 24.311 20.2789 24.077 20.2789 23.833V10.459C20.2789 7.89717 19.2638 5.44023 17.4567 3.6284C15.6497 1.81657 13.1986 0.798164 10.6425 0.797123H10.622C8.40371 0.797123 6.27632 1.68028 4.70779 3.25232C3.13925 4.82436 2.25806 6.95649 2.25806 9.17969L2.25806 13.1501C2.25806 16.2279 3.47798 19.1796 5.64946 21.3559C7.82094 23.5322 10.7661 24.7549 13.837 24.7549L13.8321 24.7529Z" fill="white"/>
<path fill-rule="evenodd" clip-rule="evenodd" d="M13.6279 24.2877C10.7563 24.2337 8.01353 23.0669 5.9785 21.0274C3.89416 18.9384 2.723 16.1049 2.723 13.1501L2.723 9.17976C2.723 7.07963 3.55543 5.06572 5.03683 3.58101C6.51819 2.09634 8.52713 1.26246 10.6216 1.26246H10.642C10.6421 1.26246 10.642 1.26246 10.642 1.26246C13.0744 1.2635 15.4071 2.2326 17.127 3.95703C18.847 5.68153 19.8134 8.02027 19.8134 10.459L19.8134 23.833C19.8134 23.954 19.7654 24.0697 19.6804 24.1549C19.5955 24.2401 19.4805 24.2877 19.3607 24.2877L13.6279 24.2877ZM16.2424 25.2183L19.3607 25.2183C19.7279 25.2183 20.0798 25.0721 20.3391 24.8122C20.5984 24.5523 20.7439 24.2001 20.7439 23.833L20.7439 10.459C20.7439 7.77421 19.68 5.19908 17.7858 3.29992C15.8917 1.40072 13.3222 0.333027 10.6424 0.331936H10.6216C8.27967 0.331936 6.03382 1.26437 4.37812 2.92377C2.72244 4.58314 1.79248 6.83351 1.79248 9.17976L1.79248 13.1501C1.79248 16.351 3.06117 19.4209 5.31979 21.6846C7.57844 23.9483 10.6421 25.2202 13.8367 25.2202H16.2473L16.2424 25.2183Z" fill="black"/>
<path d="M12.343 12.0878C11.261 12.0878 10.3838 11.2087 10.3838 10.1242C10.3838 9.03977 11.261 8.16064 12.343 8.16064C13.4251 8.16064 14.3022 9.03977 14.3022 10.1242C14.3022 11.2087 13.4251 12.0878 12.343 12.0878Z" fill="#FFAEAE"/>
<path d="M9.11025 10.615C7.05436 10.615 5.38774 8.94461 5.38774 6.88414C5.38774 4.82366 7.05436 3.15332 9.11025 3.15332C11.1661 3.15332 12.8328 4.82366 12.8328 6.88414C12.8328 8.94461 11.1661 10.615 9.11025 10.615Z" fill="white"/>
<path fill-rule="evenodd" clip-rule="evenodd" d="M9.11032 3.61851C10.9083 3.61851 12.3676 5.07957 12.3676 6.88407C12.3676 8.68856 10.9083 10.1496 9.11032 10.1496C7.31237 10.1496 5.85307 8.68856 5.85307 6.88407C5.85307 5.07957 7.31237 3.61851 9.11032 3.61851ZM13.2981 6.88407C13.2981 4.56761 11.4241 2.68799 9.11032 2.68799C6.7965 2.68799 4.92255 4.56761 4.92255 6.88407C4.92255 9.20052 6.7965 11.0801 9.11032 11.0801C11.4241 11.0801 13.2981 9.20052 13.2981 6.88407Z" fill="black"/>
<path d="M20.0603 24.8172L25.7156 21.5586L23.5595 24.7278L26.0928 27.4621L20.0603 24.8172Z" fill="black"/>
<g clip-path="url(#clip0)">
<circle cx="7.6179" cy="5.74534" r="1.07005" fill="#191919"/>
</g>
<defs>
<clipPath id="clip0">
<rect width="4.46974" height="4.46974" fill="white" transform="translate(6.52319 4.63867)"/>
</clipPath>
</defs>
</svg>
